X:207
T:Polska
R:sl\"angpolska
H:efter Lars Persson, G\"olstugan, Ving{\aa}ker. Jfr #191, #192, #224
H:"Flickorna dansar p{\aa} t{\aa}"
A:S\"ormland
B:A.P. Andersson 1880
Z:id:hn-sp-207
M:3/4
L:1/16
K:A
e2fe dcBA c'2a2 | e2fe dcBA f4 | fece edBd dcAc | cBGB ABcd efga |
e2fe dcBA a4 | e2fe dcBA f4 | fece edBd dcAc | cBGB A4 A,4 :|
|: Acec Acec Acec | e2ef efed cdcB | Acec Acec Acec |
e2ef efed cdcB | A2Ac B2Bd c2e2 | dcBA G4 A4 :|
<end>
<start>
